public/flags/HR.svg

<svg fill="none" height="53" viewBox="0 0 61 53" width="61" xmlns="http://www.w3.org/2000/svg" xmlns:xlink="http://www.w3.org/1999/xlink"><linearGradient id="a" gradientUnits="userSpaceOnUse" x1="23.4763" x2="23.4763" y1="17.1667" y2="34.1667"><stop offset="0" stop-color="#ff212e"/><stop offset="1" stop-color="#fd0d1b"/></linearGradient><mask id="b" height="43" maskUnits="userSpaceOnUse" width="59" x="1" y="3"><rect fill="#fff" height="41.4393" rx="3.7125" stroke="#fff" stroke-width="1.06071" width="57.9393" x="1.53036" y="3.53036"/></mask><rect fill="#fff" height="41.4393" rx="3.7125" stroke="#f5f5f5" stroke-width="1.06071" width="57.9393" x="1.53036" y="3.53036"/><g clip-rule="evenodd" fill-rule="evenodd" mask="url(#b)"><path d="m1 17.1667h59v-14.1667h-59z" fill="#ff202d"/><path d="m29.0953 14.3334 1.4048-1.4167 1.4048 1.4167v2.8333h-2.8096zm-5.619 0 1.4048-1.4167 1.4047 1.4167v2.8333h-2.8095zm12.6429-1.4167-1.4048 1.4167v2.8333h2.8096v-2.8333z" fill="#1895db" opacity=".5"/><path d="m33.3094 12.9167-1.4048 1.4167v2.8333h2.8096v-2.8333zm-5.619 0-1.4048 1.4167v2.8333h2.8096v-2.8333z" fill="#191f94" opacity=".5"/><path d="m1 45.5h59v-14.1667h-59z" fill="#2027ac"/><path d="m26.2858 17.1667h-1.4047l-1.4048 2.8333h2.8095v2.8333h2.8096v-2.8333h2.8095v-2.8333h-2.8096v2.8333h-2.8095zm8.4286 0h1.4048l1.4048 2.8333h-2.8095v2.8333h-2.8095v-2.8333h2.8094zm-5.6191 5.6667h2.8096v2.8333h-2.8095v2.8333h-2.8096v-2.8333h-2.8095v-2.8333h2.8096v2.8333h2.8094zm8.4287 2.8333v-2.8333h-2.8096v2.8333h-2.8094v2.8333h2.8095v-2.8333zm-11.2381 2.8333h-2.8096v2.8334h2.8095v2.8333h2.8096v-2.8333h2.8095v-2.8334h-2.8096v2.8334h-2.8094zm11.2381 2.8334v-2.8334h-2.8096v2.8334h-2.8094v2.8333h2.8095v-2.8333z" fill="url(#a)"/></g></svg>

<svg width="61" height="53" viewBox="0 0 61 53" fill="none" xmlns="http://www.w3.org/2000/svg">
<rect x="1.53036" y="3.53036" width="57.9393" height="41.4393" rx="3.7125" fill="white" stroke="#F5F5F5" stroke-width="1.06071"/>
<mask id="mask0" mask-type="alpha" maskUnits="userSpaceOnUse" x="1" y="3" width="59" height="43">
<rect x="1.53036" y="3.53036" width="57.9393" height="41.4393" rx="3.7125" fill="white" stroke="white" stroke-width="1.06071"/>
</mask>
<g mask="url(#mask0)">
<path fill-rule="evenodd" clip-rule="evenodd" d="M1 17.1667H60V3H1V17.1667Z" fill="#FF202D"/>
<path opacity="0.5" fill-rule="evenodd" clip-rule="evenodd" d="M29.0953 14.3334L30.5001 12.9167L31.9049 14.3334V17.1667H29.0953V14.3334ZM23.4763 14.3334L24.8811 12.9167L26.2858 14.3334V17.1667H23.4763V14.3334ZM36.1192 12.9167L34.7144 14.3334V17.1667H37.524V14.3334L36.1192 12.9167Z" fill="#1895DB"/>
<path opacity="0.5" fill-rule="evenodd" clip-rule="evenodd" d="M33.3094 12.9167L31.9046 14.3334V17.1667H34.7142V14.3334L33.3094 12.9167ZM27.6904 12.9167L26.2856 14.3334V17.1667H29.0952V14.3334L27.6904 12.9167Z" fill="#191F94"/>
<path fill-rule="evenodd" clip-rule="evenodd" d="M1 45.5H60V31.3333H1V45.5Z" fill="#2027AC"/>
<path fill-rule="evenodd" clip-rule="evenodd" d="M26.2858 17.1667H24.8811L23.4763 20H26.2858V22.8333H29.0954V20H31.9049V17.1667H29.0953V20H26.2858V17.1667ZM34.7144 17.1667H36.1192L37.524 20H34.7145V22.8333H31.905V20H34.7144V17.1667ZM29.0953 22.8334H31.9049V25.6667H29.0954V28.5H26.2858V25.6667H23.4763V22.8334H26.2859V25.6667H29.0953V22.8334ZM37.524 25.6667V22.8334H34.7144V25.6667H31.905V28.5H34.7145V25.6667H37.524ZM26.2859 28.5H23.4763V31.3334H26.2858V34.1667H29.0954V31.3334H31.9049V28.5H29.0953V31.3334H26.2859V28.5ZM37.524 31.3334V28.5H34.7144V31.3334H31.905V34.1667H34.7145V31.3334H37.524Z" fill="url(#paint0_linear)"/>
</g>
<defs>
<linearGradient id="paint0_linear" x1="23.4763" y1="17.1667" x2="23.4763" y2="34.1667" gradientUnits="userSpaceOnUse">
<stop stop-color="#FF212E"/>
<stop offset="1" stop-color="#FD0D1B"/>
</linearGradient>
</defs>
</svg>
